X:1
T:60 Roses all in a Roe
M:3/4
C:© Paul Gitlitz 2007
R:Waltz
N:Composed for Chris Roe's 60th. Birthday.
K:Em
E2|"Am"A3BA2|E4F2|"Em"G3A E2|"D"D4E2|!
"Am"A3BA2|E4e2|"D"d3^c de|d4E2|!
"Am"A3BA2|E4F2|"G"G3A GE|"D"D6|!
"Am"e2d3z|"G"d2B3z|"Am"A6-|1A4:|2"Am"A4B2|!
|:"C"c3d ef|g4e2|"G"d3e dB|"Em"G4B2|!
"C"c3d ef|"Em"g4e2|"Am"a6-|a4"Em"B2|!
"C"c3d ef|g4e2|"G"d3e dB|"Em"G4d2|!
"Am"e2d3z |"G"d2"Em"B3z|"Am"A6-|1A4B2:|2"Am"A4|]
